arc_length_diagram.svg

<?xml version="1.0" encoding="UTF-8" standalone="no"?>
<!-- Created with Inkscape (http://www.inkscape.org/) -->

<svg
   width="103.57532mm"
   height="91.312141mm"
   viewBox="0 0 103.57532 91.312141"
   version="1.1"
   id="svg5"
   inkscape:version="1.1.1 (3bf5ae0d25, 2021-09-20)"
   sodipodi:docname="arc_length_diagrma.svg"
   xmlns:inkscape="http://www.inkscape.org/namespaces/inkscape"
   xmlns:sodipodi="http://sodipodi.sourceforge.net/DTD/sodipodi-0.dtd"
   xmlns:xlink="http://www.w3.org/1999/xlink"
   xmlns="http://www.w3.org/2000/svg"
   xmlns:svg="http://www.w3.org/2000/svg">
  <sodipodi:namedview
     id="namedview7"
     pagecolor="#ffffff"
     bordercolor="#666666"
     borderopacity="1.0"
     inkscape:pageshadow="2"
     inkscape:pageopacity="0.0"
     inkscape:pagecheckerboard="0"
     inkscape:document-units="mm"
     showgrid="false"
     inkscape:snap-intersection-paths="true"
     inkscape:snap-smooth-nodes="true"
     inkscape:snap-midpoints="true"
     showguides="false"
     inkscape:zoom="0.62967271"
     inkscape:cx="-9.5287597"
     inkscape:cy="234.24868"
     inkscape:window-width="1920"
     inkscape:window-height="1017"
     inkscape:window-x="-8"
     inkscape:window-y="-8"
     inkscape:window-maximized="1"
     inkscape:current-layer="g2245"
     fit-margin-top="0"
     fit-margin-left="0"
     fit-margin-right="0"
     fit-margin-bottom="0" />
  <defs
     id="defs2">
    <marker
       style="overflow:visible"
       id="marker6334"
       refX="0"
       refY="0"
       orient="auto"
       inkscape:stockid="Arrow2Send"
       inkscape:isstock="true">
      <path
         transform="matrix(-0.3,0,0,-0.3,0.69,0)"
         d="M 8.7185878,4.0337352 -2.2072895,0.01601326 8.7185884,-4.0017078 c -1.7454984,2.3720609 -1.7354408,5.6174519 -6e-7,8.035443 z"
         style="fill:context-stroke;fill-rule:evenodd;stroke:context-stroke;stroke-width:0.625;stroke-linejoin:round"
         id="path6332" />
    </marker>
    <marker
       style="overflow:visible"
       id="Arrow2Send"
       refX="0"
       refY="0"
       orient="auto"
       inkscape:stockid="Arrow2Send"
       inkscape:isstock="true">
      <path
         transform="matrix(-0.3,0,0,-0.3,0.69,0)"
         d="M 8.7185878,4.0337352 -2.2072895,0.01601326 8.7185884,-4.0017078 c -1.7454984,2.3720609 -1.7354408,5.6174519 -6e-7,8.035443 z"
         style="fill:context-stroke;fill-rule:evenodd;stroke:context-stroke;stroke-width:0.625;stroke-linejoin:round"
         id="path4852" />
    </marker>
    <marker
       style="overflow:visible"
       id="Arrow1Send"
       refX="0"
       refY="0"
       orient="auto"
       inkscape:stockid="Arrow1Send"
       inkscape:isstock="true">
      <path
         transform="matrix(-0.2,0,0,-0.2,-1.2,0)"
         style="fill:context-stroke;fill-rule:evenodd;stroke:context-stroke;stroke-width:1pt"
         d="M 0,0 5,-5 -12.5,0 5,5 Z"
         id="path4834" />
    </marker>
    <g
       id="g5247">
      <symbol
         overflow="visible"
         id="glyph0-0">
        <path
           style="stroke:none"
           d="m 4.53125,-4.984375 c 0,-0.65625 -0.171875,-2.046875 -1.1875,-2.046875 -1.390625,0 -2.921875,2.8125 -2.921875,5.09375 0,0.9375 0.28125,2.046875 1.1875,2.046875 1.40625,0 2.921875,-2.859375 2.921875,-5.09375 z M 1.46875,-3.625 C 1.640625,-4.25 1.84375,-5.046875 2.25,-5.765625 2.515625,-6.25 2.875,-6.8125 3.328125,-6.8125 c 0.484375,0 0.546875,0.640625 0.546875,1.203125 0,0.5 -0.078125,1 -0.3125,1.984375 z m 2,0.328125 C 3.359375,-2.84375 3.15625,-2 2.765625,-1.28125 c -0.34375,0.6875 -0.71875,1.171875 -1.15625,1.171875 -0.328125,0 -0.53125,-0.296875 -0.53125,-1.21875 0,-0.421875 0.0625,-1 0.3125,-1.96875 z m 0,0"
           id="path5244" />
      </symbol>
    </g>
    <g
       id="g8715">
      <symbol
         overflow="visible"
         id="glyph0-0-0">
        <path
           style="stroke:none"
           d="M 3.890625,-3.734375 C 3.625,-3.71875 3.421875,-3.5 3.421875,-3.28125 c 0,0.140625 0.09375,0.296875 0.3125,0.296875 0.21875,0 0.453125,-0.171875 0.453125,-0.5625 C 4.1875,-4 3.765625,-4.40625 3,-4.40625 c -1.3125,0 -1.6875,1.015625 -1.6875,1.453125 0,0.78125 0.734375,0.921875 1.03125,0.984375 0.515625,0.109375 1.03125,0.21875 1.03125,0.765625 0,0.25 -0.21875,1.09375 -1.421875,1.09375 -0.140625,0 -0.90625,0 -1.140625,-0.53125 0.390625,0.046875 0.640625,-0.25 0.640625,-0.53125 0,-0.21875 -0.171875,-0.34375 -0.375,-0.34375 -0.265625,0 -0.5625,0.203125 -0.5625,0.65625 0,0.5625 0.578125,0.96875 1.421875,0.96875 1.625,0 2.015625,-1.203125 2.015625,-1.65625 0,-0.359375 -0.1875,-0.609375 -0.3125,-0.71875 -0.265625,-0.28125 -0.5625,-0.34375 -1,-0.421875 -0.359375,-0.078125 -0.75,-0.15625 -0.75,-0.609375 C 1.890625,-3.578125 2.125,-4.1875 3,-4.1875 c 0.25,0 0.75,0.078125 0.890625,0.453125 z m 0,0"
           id="path8712" />
      </symbol>
    </g>
  </defs>
  <g
     inkscape:label="Layer 1"
     inkscape:groupmode="layer"
     id="layer1"
     transform="translate(-56.4846,-73.59393)">
    <g
       id="g2245">
      <circle
         style="fill:none;fill-opacity:1;stroke:#000000;stroke-width:2.54;stroke-miterlimit:4;stroke-dasharray:none"
         id="path846"
         cx="114.40385"
         cy="119.25"
         r="44.38607" />
      <circle
         style="fill:#000000;fill-opacity:1;stroke:#000000;stroke-width:2.54;stroke-miterlimit:4;stroke-dasharray:none;stroke-opacity:1"
         id="path2156"
         cx="114.40385"
         cy="119.25"
         r="1.2320324" />
      <path
         style="fill:none;stroke:#000000;stroke-width:2.54;stroke-linecap:butt;stroke-linejoin:miter;stroke-miterlimit:4;stroke-dasharray:none;stroke-dashoffset:0;stroke-opacity:1"
         d="M 113.58249,119.25 H 70.017777"
         id="path2874" />
      <path
         style="fill:none;fill-opacity:1;stroke:#000000;stroke-width:2.54;stroke-miterlimit:4;stroke-dasharray:none;stroke-dashoffset:0;stroke-opacity:1"
         id="path4476"
         sodipodi:type="arc"
         sodipodi:cx="114.40385"
         sodipodi:cy="119.25"
         sodipodi:rx="19.740019"
         sodipodi:ry="19.740019"
         sodipodi:start="3.1423048"
         sodipodi:end="3.9968018"
         sodipodi:open="true"
         sodipodi:arc-type="arc"
         d="M 94.663833,119.23594 A 19.740019,19.740019 0 0 1 101.4532,104.35205" />
      <use
         xlink:href="#glyph0-0"
         x="-0.28398401"
         y="7.766016"
         id="use5251"
         width="100%"
         height="100%"
         style="fill:#000000;fill-opacity:1"
         transform="matrix(1.4004376,0,0,1.4004376,118.80065,107.10315)" />
      <path
         style="fill:none;stroke:#000000;stroke-width:2.59014;stroke-linecap:butt;stroke-linejoin:miter;stroke-miterlimit:4;stroke-dasharray:none;stroke-opacity:1"
         d="m 58.921499,119.21288 c 0,0 6.106098,0.0371 6.724749,0.0371"
         id="path5493"
         sodipodi:nodetypes="cc" />
      <path
         style="fill:none;fill-opacity:1;stroke:#000000;stroke-width:2.54;stroke-miterlimit:4;stroke-dasharray:none;stroke-dashoffset:0;stroke-opacity:1;marker-end:url(#Arrow2Send)"
         id="path5635"
         sodipodi:type="arc"
         sodipodi:cx="114.40385"
         sodipodi:cy="119.25"
         sodipodi:rx="52.032246"
         sodipodi:ry="52.032246"
         sodipodi:start="3.141727"
         sodipodi:end="3.9799794"
         sodipodi:arc-type="arc"
         d="M 62.371602,119.24301 A 52.032246,52.032246 0 0 1 79.611796,80.560624"
         sodipodi:open="true" />
      <path
         style="fill:none;stroke:#000000;stroke-width:2.54;stroke-linecap:butt;stroke-linejoin:miter;stroke-miterlimit:4;stroke-dasharray:none;stroke-opacity:1"
         d="M 113.6899,118.64423 85.689968,85.402747"
         id="path6162" />
      <use
         xlink:href="#glyph0-0-0"
         x="-0.28398401"
         y="4.766016"
         id="use8719"
         width="100%"
         height="100%"
         style="fill:#000000;fill-opacity:1"
         transform="matrix(1.6498802,0,0,1.6498802,56.10242,94.442264)" />
    </g>
  </g>
</svg>

<?xml version="1.0" encoding="UTF-8" standalone="no"?>
<!-- Created with Inkscape (http://www.inkscape.org/) -->

<svg
   width="210mm"
   height="297mm"
   viewBox="0 0 210 297"
   version="1.1"
   id="svg5"
   inkscape:version="1.1.1 (3bf5ae0d25, 2021-09-20)"
   sodipodi:docname="drawing.svg"
   xmlns:inkscape="http://www.inkscape.org/namespaces/inkscape"
   xmlns:sodipodi="http://sodipodi.sourceforge.net/DTD/sodipodi-0.dtd"
   xmlns:xlink="http://www.w3.org/1999/xlink"
   xmlns="http://www.w3.org/2000/svg"
   xmlns:svg="http://www.w3.org/2000/svg">
  <sodipodi:namedview
     id="namedview7"
     pagecolor="#ffffff"
     bordercolor="#666666"
     borderopacity="1.0"
     inkscape:pageshadow="2"
     inkscape:pageopacity="0.0"
     inkscape:pagecheckerboard="0"
     inkscape:document-units="mm"
     showgrid="false"
     inkscape:snap-intersection-paths="true"
     inkscape:snap-smooth-nodes="true"
     inkscape:snap-midpoints="true"
     showguides="false"
     inkscape:zoom="0.62967271"
     inkscape:cx="203.28021"
     inkscape:cy="512.17084"
     inkscape:window-width="1920"
     inkscape:window-height="1017"
     inkscape:window-x="-8"
     inkscape:window-y="-8"
     inkscape:window-maximized="1"
     inkscape:current-layer="g2245" />
  <defs
     id="defs2">
    <marker
       style="overflow:visible;"
       id="marker6334"
       refX="0.0"
       refY="0.0"
       orient="auto"
       inkscape:stockid="Arrow2Send"
       inkscape:isstock="true">
      <path
         transform="scale(0.3) rotate(180) translate(-2.3,0)"
         d="M 8.7185878,4.0337352 L -2.2072895,0.016013256 L 8.7185884,-4.0017078 C 6.9730900,-1.6296469 6.9831476,1.6157441 8.7185878,4.0337352 z "
         style="stroke:context-stroke;fill-rule:evenodd;fill:context-stroke;stroke-width:0.62500000;stroke-linejoin:round;"
         id="path6332" />
    </marker>
    <marker
       style="overflow:visible;"
       id="Arrow2Send"
       refX="0.0"
       refY="0.0"
       orient="auto"
       inkscape:stockid="Arrow2Send"
       inkscape:isstock="true">
      <path
         transform="scale(0.3) rotate(180) translate(-2.3,0)"
         d="M 8.7185878,4.0337352 L -2.2072895,0.016013256 L 8.7185884,-4.0017078 C 6.9730900,-1.6296469 6.9831476,1.6157441 8.7185878,4.0337352 z "
         style="stroke:context-stroke;fill-rule:evenodd;fill:context-stroke;stroke-width:0.62500000;stroke-linejoin:round;"
         id="path4852" />
    </marker>
    <marker
       style="overflow:visible;"
       id="Arrow1Send"
       refX="0.0"
       refY="0.0"
       orient="auto"
       inkscape:stockid="Arrow1Send"
       inkscape:isstock="true">
      <path
         transform="scale(0.2) rotate(180) translate(6,0)"
         style="fill-rule:evenodd;fill:context-stroke;stroke:context-stroke;stroke-width:1.0pt;"
         d="M 0.0,0.0 L 5.0,-5.0 L -12.5,0.0 L 5.0,5.0 L 0.0,0.0 z "
         id="path4834" />
    </marker>
    <g
       id="g5247">
      <symbol
         overflow="visible"
         id="glyph0-0">
        <path
           style="stroke:none;"
           d="M 4.53125 -4.984375 C 4.53125 -5.640625 4.359375 -7.03125 3.34375 -7.03125 C 1.953125 -7.03125 0.421875 -4.21875 0.421875 -1.9375 C 0.421875 -1 0.703125 0.109375 1.609375 0.109375 C 3.015625 0.109375 4.53125 -2.75 4.53125 -4.984375 Z M 1.46875 -3.625 C 1.640625 -4.25 1.84375 -5.046875 2.25 -5.765625 C 2.515625 -6.25 2.875 -6.8125 3.328125 -6.8125 C 3.8125 -6.8125 3.875 -6.171875 3.875 -5.609375 C 3.875 -5.109375 3.796875 -4.609375 3.5625 -3.625 Z M 3.46875 -3.296875 C 3.359375 -2.84375 3.15625 -2 2.765625 -1.28125 C 2.421875 -0.59375 2.046875 -0.109375 1.609375 -0.109375 C 1.28125 -0.109375 1.078125 -0.40625 1.078125 -1.328125 C 1.078125 -1.75 1.140625 -2.328125 1.390625 -3.296875 Z M 3.46875 -3.296875 "
           id="path5244" />
      </symbol>
    </g>
    <g
       id="g8715">
      <symbol
         overflow="visible"
         id="glyph0-0-0">
        <path
           style="stroke:none;"
           d="M 3.890625 -3.734375 C 3.625 -3.71875 3.421875 -3.5 3.421875 -3.28125 C 3.421875 -3.140625 3.515625 -2.984375 3.734375 -2.984375 C 3.953125 -2.984375 4.1875 -3.15625 4.1875 -3.546875 C 4.1875 -4 3.765625 -4.40625 3 -4.40625 C 1.6875 -4.40625 1.3125 -3.390625 1.3125 -2.953125 C 1.3125 -2.171875 2.046875 -2.03125 2.34375 -1.96875 C 2.859375 -1.859375 3.375 -1.75 3.375 -1.203125 C 3.375 -0.953125 3.15625 -0.109375 1.953125 -0.109375 C 1.8125 -0.109375 1.046875 -0.109375 0.8125 -0.640625 C 1.203125 -0.59375 1.453125 -0.890625 1.453125 -1.171875 C 1.453125 -1.390625 1.28125 -1.515625 1.078125 -1.515625 C 0.8125 -1.515625 0.515625 -1.3125 0.515625 -0.859375 C 0.515625 -0.296875 1.09375 0.109375 1.9375 0.109375 C 3.5625 0.109375 3.953125 -1.09375 3.953125 -1.546875 C 3.953125 -1.90625 3.765625 -2.15625 3.640625 -2.265625 C 3.375 -2.546875 3.078125 -2.609375 2.640625 -2.6875 C 2.28125 -2.765625 1.890625 -2.84375 1.890625 -3.296875 C 1.890625 -3.578125 2.125 -4.1875 3 -4.1875 C 3.25 -4.1875 3.75 -4.109375 3.890625 -3.734375 Z M 3.890625 -3.734375 "
           id="path8712" />
      </symbol>
    </g>
  </defs>
  <g
     inkscape:label="Layer 1"
     inkscape:groupmode="layer"
     id="layer1">
    <g
       id="g2245">
      <circle
         style="fill:none;fill-opacity:1;stroke:#000000;stroke-width:2.54;stroke-miterlimit:4;stroke-dasharray:none"
         id="path846"
         cx="114.40385"
         cy="119.25"
         r="44.38607" />
      <circle
         style="fill:#000000;fill-opacity:1;stroke:#000000;stroke-width:2.54;stroke-opacity:1;stroke-miterlimit:4;stroke-dasharray:none"
         id="path2156"
         cx="114.40385"
         cy="119.25"
         r="1.2320324" />
      <path
         style="fill:none;stroke:#000000;stroke-width:2.54;stroke-linecap:butt;stroke-linejoin:miter;stroke-opacity:1;stroke-miterlimit:4;stroke-dasharray:none;stroke-dashoffset:0"
         d="M 113.58249,119.25 H 70.017777"
         id="path2874" />
      <path
         style="fill:none;fill-opacity:1;stroke:#000000;stroke-width:2.54;stroke-miterlimit:4;stroke-dasharray:none;stroke-dashoffset:0;stroke-opacity:1"
         id="path4476"
         sodipodi:type="arc"
         sodipodi:cx="114.40385"
         sodipodi:cy="119.25"
         sodipodi:rx="19.740019"
         sodipodi:ry="19.740019"
         sodipodi:start="3.1423048"
         sodipodi:end="3.9968018"
         sodipodi:open="true"
         sodipodi:arc-type="arc"
         d="M 94.663833,119.23594 A 19.740019,19.740019 0 0 1 101.4532,104.35205" />
      <use
         xlink:href="#glyph0-0"
         x="-0.28398401"
         y="7.766016"
         id="use5251"
         width="100%"
         height="100%"
         style="fill:#000000;fill-opacity:1"
         transform="matrix(1.4004376,0,0,1.4004376,118.80065,107.10315)" />
      <path
         style="fill:none;stroke:#000000;stroke-width:2.59014;stroke-linecap:butt;stroke-linejoin:miter;stroke-miterlimit:4;stroke-dasharray:none;stroke-opacity:1"
         d="m 58.921499,119.21288 c 0,0 6.106098,0.0371 6.724749,0.0371"
         id="path5493"
         sodipodi:nodetypes="cc" />
      <path
         style="fill:none;fill-opacity:1;stroke:#000000;stroke-width:2.54;stroke-miterlimit:4;stroke-dasharray:none;stroke-dashoffset:0;stroke-opacity:1;marker-end:url(#Arrow2Send)"
         id="path5635"
         sodipodi:type="arc"
         sodipodi:cx="114.40385"
         sodipodi:cy="119.25"
         sodipodi:rx="52.032246"
         sodipodi:ry="52.032246"
         sodipodi:start="3.141727"
         sodipodi:end="3.9799794"
         sodipodi:arc-type="arc"
         d="M 62.371602,119.24301 A 52.032246,52.032246 0 0 1 79.611796,80.560624"
         sodipodi:open="true" />
      <path
         style="fill:none;stroke:#000000;stroke-width:2.54;stroke-linecap:butt;stroke-linejoin:miter;stroke-opacity:1;stroke-miterlimit:4;stroke-dasharray:none"
         d="M 113.6899,118.64423 85.689968,85.402747"
         id="path6162" />
      <use
         xlink:href="#glyph0-0-0"
         x="-0.28398401"
         y="4.766016"
         id="use8719"
         width="100%"
         height="100%"
         style="fill:#000000;fill-opacity:1"
         transform="matrix(1.6498802,0,0,1.6498802,56.10242,94.442264)" />
    </g>
  </g>
</svg>
